X:1
T:Jesus Asked One Day
T:Jesus Asked One Day
T:Anthony Johnson Showalter, 1887
T:Carolyn Winfrey Gillette, 2014
T:© 2014 Carolyn Winfrey Gillette Courtesy of the Cyber Hymnal™
T:© 2014 Carolyn Winfrey Gillette Courtesy of the Cyber Hymnal™
C:Anthony Johnson Showalter, 1887
Z:© 2014 Carolyn Winfrey Gillette
Z:Courtesy of the Cyber Hymnal™
%%score 1 ( 2 3 )
L:1/8
Q:1/4=110
M:4/4
K:Ab
V:1 treble 
V:2 bass 
V:3 bass 
V:1
 [Ec]2 [Ec]2 [Ec]>[DB] [CA]2 | [DB]2 [DB]2 [DB]>[DA] [DF]2 | [CE]2 [CE]2 [CA]>[B,G] [CA]>[DB] | %3
w: 1.~Je- sus asked one day,|“What do o- thers say?|Who do peo- ple tell you|
w: 2.~He said, “Tell me, then,|who you say I am.”|Pe- ter an- swered, “You are|
w: 3.~Je- sus told his friends,|“See how love ex- tends:|I must suf- fer, die and|
w: 4.~Je- sus said to him,|“Get be- hind me, then.|Those who cling to life will|
 [Ec]2 [Ec]2 [EB]4 | [Ec]2 [Ec]2 [Ec]>[DB] [CA]2 | [DB]2 [DB]2 [DB]>[DA] [DF]2 | %6
w: that I am?”|His dis- ci- ples said,|“John— back from the dead,|
w: God’s own Son.”|Je- sus said, “You Rock!|You’re the build- ing block|
w: then be raised.”|Pe- ter dis- a- greed:|“That can ne- ver be.|
w: sure- ly die.|Come and fol- low me!|I will make you free.|
 [CE]2 [CE]2 [CA]>[B,G] [CA]>[DB] | [Ec]2 [DB]2 [CA]4 ||"^Refrain" [Ec]4 [CA]4 | [FA]4 [DF]4 | %10
w: Or a pro- phet sent by|God’s own hand.”|||
w: That my church will be es-|tab- lished on.”|||
w: God’s Mes- si- ah will know|glor- ious days!”|||
w: Seek God’s king- dom and you’ll|find new life.”|||
 [CE]2 [CA]>[DG] [EA]2 [EB]2 | [Ec]2 [Ec]2 [EB]4 | [Ec]4 [CA]4 | [FA]4 [DF]4 | %14
w: ||||
w: ||||
w: ||||
w: ||||
 [CE]2 [CE]2 [CA]>[B,G] [CA]>[DB] | [Ec]2 [DB]2 [CA]4 |] %16
w: ||
w: ||
w: ||
w: ||
V:2
 [A,,A,]2 [A,,A,]2 [A,,A,]>[A,,A,] [A,,E,]2 | [D,F,]2 [D,F,]2 [D,F,]>[D,F,] [D,A,]2 | %2
w: ~ ~ ~ ~ ~|~ ~ ~ ~ ~|
 [A,,A,]2 [A,,A,]2 [A,,A,]>[A,,A,] [A,,A,]>[A,,A,] | A,2 A,2 [E,G,]4 | %4
w: ~ ~ ~ ~ ~ ~|~ ~ ~|
 [A,,A,]2 [A,,A,]2 [A,,A,]>[A,,A,] [A,,E,]2 | [D,F,]2 [D,F,]2 [D,F,]>[D,F,] [D,A,]2 | %6
w: ~ ~ ~ ~ ~|~ ~ ~ ~ ~|
 [E,A,]2 [E,A,]2 E,>E, E,>E, | [E,A,]2 [E,G,]2 [A,,E,]4 || A,2 A,2 A,2 x2 | %9
w: ~ ~ ~ ~ ~ ~|~ ~ ~|Lord and Sav-|
 ([D,A,]2 [D,A,]>[D,A,]) ([D,A,]2 [D,A,]2) | [A,,A,]2 [A,,E,]>[B,,E,] [C,A,]2 [E,G,]2 | %11
w: ior, * * You *|are the One who bore|
 A,2 A,2 [E,G,]4 | A,2 A,2 A,2 x2 | ([D,A,]2 [D,A,]>[D,A,]) ([D,A,]2 [D,A,]2) | %14
w: the cross; May|we fol- low,|Ser- * * ving *|
 [E,A,]2 [E,A,]2 E,>E, E,>E, | [E,A,]2 [E,G,]2 [A,,E,]4 |] %16
w: you no mat- ter what the|cost. * *|
V:3
 x8 | x8 | x8 | A,2 A,2 x4 | x8 | x8 | x8 | x8 || (A,2 A,>A,) (A,2 A,2) | x8 | x8 | A,2 A,2 x4 | %12
 (A,2 A,>A,) (A,2 A,2) | x8 | x8 | x8 |] %16

